www/assets/icons/low_priority.svg

<svg xmlns="http://www.w3.org/2000/svg" width="24" height="24" viewBox="0 0 24 24" fill='currentColor'><path d="M14 4.5h8v2h-8zm0 5.5h8v2h-8zm0 5.5h8v2h-8zM2 11c0 3.58 2.92 6.5 6.5 6.5H9v2l3-3-3-3v2h-.5C6.02 15.5 4 13.48 4 11s2.02-4.5 4.5-4.5H12v-2H8.5C4.92 4.5 2 7.42 2 11"/></svg>

<svg width="24" height="24" viewBox="0 0 24 24" xmlns="http://www.w3.org/2000/svg" fill='currentColor'><path d="M14 4.5H22V6.5H14V4.5ZM14 10H22V12H14V10ZM14 15.5H22V17.5H14V15.5ZM2 11C2 14.58 4.92 17.5 8.5 17.5H9V19.5L12 16.5L9 13.5V15.5H8.5C6.02 15.5 4 13.48 4 11C4 8.52 6.02 6.5 8.5 6.5H12V4.5H8.5C4.92 4.5 2 7.42 2 11Z"/></svg>
